X:8657
T:Kiss the (minor) maid behind the barrel
R:reel
S:
H:
N:
D:Milltown 1999 
Z:Adrian Scahill 
M:4/4
L:1/8
K:F
DGG2 G3F|D2GB cAGF|DGG2 AGFA|(3c^cd fd =cAGF|\
DGG2 AGGF|D2GB cAGF|DGG2 AGFA|d2fd cAFA||\
dggd g2ag|dgg2 agfe|defe fdce|d2fd cAFA|\
dggd g2ag|dgg2 agfe|de (3fff fdce|defd cAFA||\
G2dG BGdG|G2dB cAFA|G2dG ABBc|defd cAFA|\ 
G2dG BGdG|G2dB cAFA|B3G A3c|defd cAFA||\
AB (3BBB GA (3AAA|AB (3BBB Bc (3ccc|AB (3BBB GA (3AAA|defd cAFA|\
BD (3DDD AD (3DDD|BD (3DDD cD (3DDD|BD (3DDD AD (3DDD|defd cAFA||


